X:1
T:Caprice No. 13
T:Caprice No. 13
T:Op. 20
T:Luigi Legnani (1790 - 1877)
C:Luigi Legnani
%%score ( 1 2 )
L:1/8
Q:1/4=180
M:4/4
K:F
V:1 treble-8 nm="Classical Guitar" snm="Guit."
V:2 treble-8 
V:1
"^Allegro moderato"!f! [df]4 [df]4 | !>![df]6 [df]2 | [de]2 [de]2 [de]2 [de]2 | %3
 [^ce]4 z2 !>![Bc]2 | [Ad]2 [Ad]2 z2 !>![Ae]2 | [Af]2 [Af]2 z2 !>![Ad]2 | %6
 [de]2 [de]2 !>![A^ca]2 z2 |!p! [df][df][df][df] [df][df][df][df] | %8
 [df][df][df][df] [df][df][df][df] | [df][df][df][df] [df][df][df][df] | %10
 [df][df][df][df] [df][df][df][df] | [^ce][ce][ce][ce] [ce][ce][ce][ce] | %12
 [^ce][ce][ce][ce] [ce][ce][ce][ce] | [^ce][ce][ce][ce] [ce][ce][ce][ce] | %14
 [^ce][ce][ce][ce] [ce][ce][ce][ce] | z!<(! a/a/ aa aaaa!<)! |!f!"^V" [cec']3 b agfe | %17
 f2 z2 z c'ba | g2 !>!f2 z c'ba | g2 !>!f2 z c'ba | gfef gfba | ^f2 !>!g2 z bag | =f2 !>!e2 z bag | %23
 f2 !>!e2 z bag | fec'b agfe | f2 z2 z4 | [df][df][df][df] [df][df][df][df] | %27
 [df][df][df][df] [df][df][df][df] | [de][de][de][de] [de][de][de][de] | %29
 [^ce][ce][ce][ce] [ce][ce][ce][ce] | [df][df][df][df] [df][df][df][df] | %31
 [df][df][df][df] [df][df][df][df] | [de][de][de][de] [de][de][de][de] | %33
 [^ce][ce][ce][ce] [ce][ce][ce][ce] | [df][df][df][df] [df][df][df][df] | %35
 [df][df][df][df] [df][df][df][df] | [de]!>(![de][de][de]!>)!!p!!p! [^ce][ce][ce][ce] | %37
 z2 [FAd]2 z2 [GBe]2 | z2 [FAd]2 z2 [EG^c]2 |!f! [df][df][df][df] [df][df][df][df] | %40
 [df][df][df][df] [df][df][df][df] | [de]!>(![de][de][de]!>)!!p! [^ce][ce][ce][ce] | %42
 z2 [FAd]2 z2 [GBe]2 | z2 [FAd]2 z2 [EG^c]2 |"^III" !>![F=Bd]2 z2 z2 !>![Bd^g]2 | %45
!f! [F=Bd]2 [Bd^g]2 [FBd]2 [Bdg]2 |!p! [fa]2 z2 z2 [eg]2 | [df]2 z2 z2 [^ce]2 | %48
"^III" !>![F=Bd]2 z2 z2 !>![Bd^g]2 | [F=Bd]2 [Bd^g]2 [FBd]2 [Bdg]2 | [fa]2 z2 z2 [eg]2 | %51
 [df]2 z2 z2 [^ce]2 | [Fd]4 z4 |] %53
V:2
 D4 F4 | !>!B6 A2 | G2 G2 ^G2 G2 | A4 z2 !>!G2 | F2 F2 z2 !>!^C2 | D2 D2 z2 !>!F2 | %6
 G2 G2 !>!A,2 z2 | D2 z2 z AGF | E2 !>!D2- DAGF | E2 !>!D2- DAGF | ED^CD EFGA | B2 z2 z BAG | %12
 F2 !>!E2- EBAG | F2 !>!E2- EBAG | FED^C B,A,=B,C | D2 z2 z4 | G2 z2 z4 | AcAc AcAc | BcAc AcAc | %19
 BcAc AcAc | AcAc AcAc | BcBc BcBc | AcBc BcBc | AcBc BcBc | BcBc BcBc | AA^G=G ^F=FE_E | %26
 D2 z2 z AGF | E2 !>!D2 z DCB, | A,2 !>!G,2 z G,A,B, | A,2 z2 z A,=B,^C | D2 z2 z AGF | %31
 E2 !>!D2 z DCB, | A,2 !>!G,2 z G,A,B, | A,2 z2 z A,=B,^C | D3 E F3 G | AGFE DC=B,A, | %36
 ^G,2 z2 A,2 =G,2 | F,2 z2 G,2 z2 | A,2 z2 G,2 z2 | D3 E F3 G | AGFE DC=B,A, | ^G,2 z2 A,2 =G,2 | %42
 F,2 z2 G,2 z2 | A,2 z2 G,2 z2 | !>!^G,2 z2 z2 !>!F2 | ^G,2 F2 G,2 F2 | z2 D2 G2 z2 | %47
 z2 A2 A,2 z2 | !>!^G,2 z2 z2 !>!F2 | ^G,2 F2 G,2 F2 | z2 D2 G2 z2 | z2 A2 A,2 z2 | D4 z4 |] %53

